Numix-White/48/apps/eog.svg

<?xml version="1.0" encoding="UTF-8" standalone="no"?>
<svg
   xmlns:dc="http://purl.org/dc/elements/1.1/"
   xmlns:cc="http://creativecommons.org/ns#"
   xmlns:rdf="http://www.w3.org/1999/02/22-rdf-syntax-ns#"
   xmlns:svg="http://www.w3.org/2000/svg"
   xmlns="http://www.w3.org/2000/svg"
   xmlns:sodipodi="http://sodipodi.sourceforge.net/DTD/sodipodi-0.dtd"
   xmlns:inkscape="http://www.inkscape.org/namespaces/inkscape"
   viewBox="0 0 48 48"
   id="svg2"
   version="1.1"
   inkscape:version="0.91 r13725"
   sodipodi:docname="eog.svg">
  <metadata
     id="metadata49">
    <rdf:RDF>
      <cc:Work
         rdf:about="">
        <dc:format>image/svg+xml</dc:format>
        <dc:type
           rdf:resource="http://purl.org/dc/dcmitype/StillImage" />
      </cc:Work>
    </rdf:RDF>
  </metadata>
  <sodipodi:namedview
     pagecolor="#ffffff"
     bordercolor="#666666"
     borderopacity="1"
     objecttolerance="10"
     gridtolerance="10"
     guidetolerance="10"
     inkscape:pageopacity="0"
     inkscape:pageshadow="2"
     inkscape:window-width="749"
     inkscape:window-height="480"
     id="namedview47"
     showgrid="false"
     inkscape:zoom="4.9166667"
     inkscape:cx="24"
     inkscape:cy="24"
     inkscape:window-x="57"
     inkscape:window-y="31"
     inkscape:window-maximized="0"
     inkscape:current-layer="g27" />
  <defs
     id="defs4">
    <linearGradient
       id="linearGradient3764"
       x1="1"
       x2="47"
       gradientUnits="userSpaceOnUse"
       gradientTransform="matrix(0,-1,1,0,-1.5e-6,47.999998)">
      <stop
         style="stop-color:#93c849;stop-opacity:1"
         id="stop7" />
      <stop
         offset="1"
         style="stop-color:#9ccc58;stop-opacity:1"
         id="stop9" />
    </linearGradient>
  </defs>
  <g
     id="g11">
    <path
       d="m 36.31 5 c 5.859 4.062 9.688 10.831 9.688 18.5 c 0 12.426 -10.07 22.5 -22.5 22.5 c -7.669 0 -14.438 -3.828 -18.5 -9.688 c 1.037 1.822 2.306 3.499 3.781 4.969 c 4.085 3.712 9.514 5.969 15.469 5.969 c 12.703 0 23 -10.298 23 -23 c 0 -5.954 -2.256 -11.384 -5.969 -15.469 c -1.469 -1.475 -3.147 -2.744 -4.969 -3.781 z m 4.969 3.781 c 3.854 4.113 6.219 9.637 6.219 15.719 c 0 12.703 -10.297 23 -23 23 c -6.081 0 -11.606 -2.364 -15.719 -6.219 c 4.16 4.144 9.883 6.719 16.219 6.719 c 12.703 0 23 -10.298 23 -23 c 0 -6.335 -2.575 -12.06 -6.719 -16.219 z"
       style="opacity:0.05"
       id="path13" />
    <path
       d="m 41.28 8.781 c 3.712 4.085 5.969 9.514 5.969 15.469 c 0 12.703 -10.297 23 -23 23 c -5.954 0 -11.384 -2.256 -15.469 -5.969 c 4.113 3.854 9.637 6.219 15.719 6.219 c 12.703 0 23 -10.298 23 -23 c 0 -6.081 -2.364 -11.606 -6.219 -15.719 z"
       style="opacity:0.1"
       id="path15" />
    <path
       d="m 31.25 2.375 c 8.615 3.154 14.75 11.417 14.75 21.13 c 0 12.426 -10.07 22.5 -22.5 22.5 c -9.708 0 -17.971 -6.135 -21.12 -14.75 a 23 23 0 0 0 44.875 -7 a 23 23 0 0 0 -16 -21.875 z"
       style="opacity:0.2"
       id="path17" />
  </g>
  <g
     id="g19"
     style="fill:#e6e6e6;fill-opacity:1">
    <path
       d="m 24 1 c 12.703 0 23 10.297 23 23 c 0 12.703 -10.297 23 -23 23 -12.703 0 -23 -10.297 -23 -23 0 -12.703 10.297 -23 23 -23 z"
       style="fill:#e6e6e6;fill-opacity:1"
       id="path21" />
  </g>
  <g
     id="g23">
    <path
       d="m 40.03 7.531 c 3.712 4.084 5.969 9.514 5.969 15.469 0 12.703 -10.297 23 -23 23 c -5.954 0 -11.384 -2.256 -15.469 -5.969 4.178 4.291 10.01 6.969 16.469 6.969 c 12.703 0 23 -10.298 23 -23 0 -6.462 -2.677 -12.291 -6.969 -16.469 z"
       style="opacity:0.1"
       id="path25" />
  </g>
  <g
     transform="matrix(3.543307,0,0,3.543307,0.03700814,5.7587553e-7)"
     id="g27">
    <rect
       rx="0.776"
       y="3.951"
       x="3.387"
       height="6.209"
       width="7.338"
       style="fill:#000;fill-opacity:0.102;stroke:none"
       id="rect29" />
    <path
       d="m 3.344 3.909 0 5.729 6.858 0 0 -5.729 z"
       style="fill:#2c87d5"
       id="path31" />
    <path
       d="M 5.801,3.76 3.393,3.945 3.146,6.705 c 0.169,0.04 0.348,0.062 0.529,0.062 1.247,0 2.258,-1.01 2.258,-2.258 0,-0.263 -0.05,-0.515 -0.132,-0.75 z"
       style="fill:#fff;opacity:0.2"
       id="path33" />
    <path
       d="m 3.365 3.945 0 1.596 c 0.128 0.06 0.301 0.097 0.452 0.097 0.546 0 0.988 -0.442 0.988 -0.988 0 -0.277 -0.116 -0.526 -0.3 -0.706 z"
       style="fill:#fbc06e"
       id="path35" />
    <path
       d="m 4.804 7.332 -1.439 1.411 0 0.875 3.133 0 0 -0.593 z"
       style="fill:#f7f7f7"
       id="path37" />
    <path
       d="m 4.804 7.332 0.282 1.129 -0.564 0.706 0.282 0.452 1.693 0 0 -0.593 z"
       style="fill:#dfdfdf"
       id="path39" />
    <path
       d="m 8.473 6.203 -2.54 3.415 4.262 0 0 -1.536 z"
       style="fill:#f7f7f7"
       id="path41" />
    <path
       d="m 8.473 6.203 0.423 1.411 -0.423 1.27 0.503 0.734 1.219 0 0 -1.536 z"
       style="fill:#dfdfdf"
       id="path43" />
    <path
       d="m 3.75,3.656 c -0.353,0 -0.656,0.304 -0.656,0.656 l 0,4.938 c 0,0.353 0.304,0.625 0.656,0.625 l 6.06,0 c 0.353,0 0.625,-0.272 0.625,-0.625 l 0,-4.938 c 0,-0.353 -0.272,-0.656 -0.625,-0.656 l -6.06,0 z m 0,0.281 6.06,0 c 0.201,0 0.344,0.174 0.344,0.375 l 0,4.938 c 0,0.201 -0.142,0.344 -0.344,0.344 l -6.06,0 C 3.549,9.594 3.375,9.452 3.375,9.25 l 0,-4.938 c 0,-0.201 0.174,-0.375 0.375,-0.375 z"
       style="visibility:visible;fill:#666666;fill-opacity:1;stroke:none;display:inline;color:#000"
       id="path45" />
  </g>
</svg>

<?xml version="1.0" encoding="UTF-8" standalone="no"?>
<svg
   xmlns:dc="http://purl.org/dc/elements/1.1/"
   xmlns:cc="http://creativecommons.org/ns#"
   xmlns:rdf="http://www.w3.org/1999/02/22-rdf-syntax-ns#"
   xmlns:svg="http://www.w3.org/2000/svg"
   xmlns="http://www.w3.org/2000/svg"
   xmlns:sodipodi="http://sodipodi.sourceforge.net/DTD/sodipodi-0.dtd"
   xmlns:inkscape="http://www.inkscape.org/namespaces/inkscape"
   viewBox="0 0 48 48"
   id="svg2"
   version="1.1"
   inkscape:version="0.92.1 r"
   sodipodi:docname="eog.svg"
   width="51.200001"
   height="51.200001">
  <metadata
     id="metadata49">
    <rdf:RDF>
      <cc:Work
         rdf:about="">
        <dc:format>image/svg+xml</dc:format>
        <dc:type
           rdf:resource="http://purl.org/dc/dcmitype/StillImage" />
      </cc:Work>
    </rdf:RDF>
  </metadata>
  <sodipodi:namedview
     pagecolor="#ffffff"
     bordercolor="#666666"
     borderopacity="1"
     objecttolerance="10"
     gridtolerance="10"
     guidetolerance="10"
     inkscape:pageopacity="0"
     inkscape:pageshadow="2"
     inkscape:window-width="819"
     inkscape:window-height="480"
     id="namedview47"
     showgrid="false"
     inkscape:zoom="4.9166667"
     inkscape:cx="24"
     inkscape:cy="24"
     inkscape:window-x="66"
     inkscape:window-y="31"
     inkscape:window-maximized="0"
     inkscape:current-layer="svg2" />
  <defs
     id="defs4">
    <linearGradient
       id="linearGradient3764"
       x1="1"
       x2="47"
       gradientUnits="userSpaceOnUse"
       gradientTransform="rotate(-90,23.999998,24)">
      <stop
         style="stop-color:#93c849;stop-opacity:1"
         id="stop7" />
      <stop
         offset="1"
         style="stop-color:#9ccc58;stop-opacity:1"
         id="stop9" />
    </linearGradient>
  </defs>
  <g
     id="g11">
    <path
       d="m 36.31,5 c 5.859,4.062 9.688,10.831 9.688,18.5 0,12.426 -10.07,22.5 -22.5,22.5 -7.669,0 -14.438,-3.828 -18.5,-9.688 1.037,1.822 2.306,3.499 3.781,4.969 4.085,3.712 9.514,5.969 15.469,5.969 12.703,0 23,-10.298 23,-23 0,-5.954 -2.256,-11.384 -5.969,-15.469 C 39.81,7.306 38.132,6.037 36.31,5 Z m 4.969,3.781 c 3.854,4.113 6.219,9.637 6.219,15.719 0,12.703 -10.297,23 -23,23 -6.081,0 -11.606,-2.364 -15.719,-6.219 4.16,4.144 9.883,6.719 16.219,6.719 12.703,0 23,-10.298 23,-23 0,-6.335 -2.575,-12.06 -6.719,-16.219 z"
       style="opacity:0.05"
       id="path13"
       inkscape:connector-curvature="0" />
    <path
       d="m 41.28,8.781 c 3.712,4.085 5.969,9.514 5.969,15.469 0,12.703 -10.297,23 -23,23 -5.954,0 -11.384,-2.256 -15.469,-5.969 4.113,3.854 9.637,6.219 15.719,6.219 12.703,0 23,-10.298 23,-23 0,-6.081 -2.364,-11.606 -6.219,-15.719 z"
       style="opacity:0.1"
       id="path15"
       inkscape:connector-curvature="0" />
    <path
       d="M 31.25,2.375 C 39.865,5.529 46,13.792 46,23.505 c 0,12.426 -10.07,22.5 -22.5,22.5 -9.708,0 -17.971,-6.135 -21.12,-14.75 a 23,23 0 0 0 44.875,-7 23,23 0 0 0 -16,-21.875 z"
       style="opacity:0.2"
       id="path17"
       inkscape:connector-curvature="0" />
  </g>
  <g
     id="g19"
     style="fill:#ececec;fill-opacity:1">
    <path
       d="M 24,1 C 36.703,1 47,11.297 47,24 47,36.703 36.703,47 24,47 11.297,47 1,36.703 1,24 1,11.297 11.297,1 24,1 Z"
       style="fill:#ececec;fill-opacity:1"
       id="path21"
       inkscape:connector-curvature="0" />
  </g>
  <g
     id="g23">
    <path
       d="m 40.03,7.531 c 3.712,4.084 5.969,9.514 5.969,15.469 0,12.703 -10.297,23 -23,23 C 17.045,46 11.615,43.744 7.53,40.031 11.708,44.322 17.54,47 23.999,47 c 12.703,0 23,-10.298 23,-23 0,-6.462 -2.677,-12.291 -6.969,-16.469 z"
       style="opacity:0.1"
       id="path25"
       inkscape:connector-curvature="0" />
  </g>
  <g
     transform="matrix(3.543307,0,0,3.543307,0.03700814,5.7587553e-7)"
     id="g27">
    <rect
       rx="0.77600002"
       y="3.951"
       x="3.3870001"
       height="6.2090001"
       width="7.3379998"
       style="fill:#000000;fill-opacity:0.10199998;stroke:none"
       id="rect29" />
    <path
       d="m 3.344,3.909 v 5.729 h 6.858 V 3.909 Z"
       style="fill:#2c87d5"
       id="path31"
       inkscape:connector-curvature="0" />
    <path
       d="M 5.801,3.76 3.393,3.945 3.146,6.705 c 0.169,0.04 0.348,0.062 0.529,0.062 1.247,0 2.258,-1.01 2.258,-2.258 0,-0.263 -0.05,-0.515 -0.132,-0.75 z"
       style="opacity:0.2;fill:#ffffff"
       id="path33"
       inkscape:connector-curvature="0" />
    <path
       d="m 3.365,3.945 v 1.596 c 0.128,0.06 0.301,0.097 0.452,0.097 0.546,0 0.988,-0.442 0.988,-0.988 0,-0.277 -0.116,-0.526 -0.3,-0.706 z"
       style="fill:#fbc06e"
       id="path35"
       inkscape:connector-curvature="0" />
    <path
       d="M 4.804,7.332 3.365,8.743 V 9.618 H 6.498 V 9.025 Z"
       style="fill:#f7f7f7"
       id="path37"
       inkscape:connector-curvature="0" />
    <path
       d="M 4.804,7.332 5.086,8.461 4.522,9.167 4.804,9.619 H 6.497 V 9.026 Z"
       style="fill:#dfdfdf"
       id="path39"
       inkscape:connector-curvature="0" />
    <path
       d="m 8.473,6.203 -2.54,3.415 h 4.262 V 8.082 Z"
       style="fill:#f7f7f7"
       id="path41"
       inkscape:connector-curvature="0" />
    <path
       d="m 8.473,6.203 0.423,1.411 -0.423,1.27 0.503,0.734 h 1.219 V 8.082 Z"
       style="fill:#dfdfdf"
       id="path43"
       inkscape:connector-curvature="0" />
    <path
       d="M 3.75,3.656 C 3.397,3.656 3.094,3.96 3.094,4.312 V 9.25 c 0,0.353 0.304,0.625 0.656,0.625 h 6.06 c 0.353,0 0.625,-0.272 0.625,-0.625 V 4.312 c 0,-0.353 -0.272,-0.656 -0.625,-0.656 z m 0,0.281 h 6.06 c 0.201,0 0.344,0.174 0.344,0.375 V 9.25 c 0,0.201 -0.142,0.344 -0.344,0.344 H 3.75 C 3.549,9.594 3.375,9.452 3.375,9.25 V 4.312 c 0,-0.201 0.174,-0.375 0.375,-0.375 z"
       style="color:#000000;display:inline;visibility:visible;fill:#666666;fill-opacity:1;stroke:none"
       id="path45"
       inkscape:connector-curvature="0" />
  </g>
</svg>
